UI/POI/SVG/cemetry_solid_24px.svg

<svg width="24" height="24" viewBox="0 0 24 24" fill="none" xmlns="http://www.w3.org/2000/svg">
<path d="M22 22H2V20H22V22ZM20 6V18H4V6C4 5.46957 4.21071 4.96086 4.58579 4.58579C4.96086 4.21071 5.46957 4 6 4H9C9 3.46957 9.21071 2.96086 9.58579 2.58579C9.96086 2.21071 10.4696 2 11 2H13C13.5304 2 14.0391 2.21071 14.4142 2.58579C14.7893 2.96086 15 3.46957 15 4H18C18.5304 4 19.0391 4.21071 19.4142 4.58579C19.7893 4.96086 20 5.46957 20 6ZM11 12H8V14H11V12ZM16 12H13V14H16V12ZM16 8H8V10H16V8Z" fill="#0F1621"/>
</svg>

<svg xmlns="http://www.w3.org/2000/svg" width="24" height="24" viewBox="0 0 24 24"><rect width="24" height="24" style="fill:none"/><path d="M22,22H2V20H22ZM20,6V18H4V6A2,2,0,0,1,6,4H9a2,2,0,0,1,2-2h2a2,2,0,0,1,2,2h3A2,2,0,0,1,20,6Zm-9,6H8v2h3Zm5,0H13v2h3Zm0-4H8v2h8Z"/></svg>
